X:405
T: GAR FROEHLICH TRET ICH IN DIE WELT
N: F0742
O: Europa, Mitteleuropa, Deutschland
R: Geselligkeits - Lied
M: 2/4
L: 1/16
K: C
G,2 | E2E2C2C2 | F2F2D2
D2 | G2C2F2E2 | D4z2
D2 | D3DD2E^F | G3G^FE
DC | B,3B,C3A, | G,4z2
F2 | E2D2C2E2 | D3ED2
F2 | E2D2C2E2 | D4z2
G,2 | E2E2C2C2 | F2F2D2
D2 | GAFDC2ED | C4z2

